app/dist/common/images/dongxing-securities.svg

<svg height="18" viewBox="0 0 18 18" width="18" xmlns="http://www.w3.org/2000/svg"><path d="m0 0h18v18h-18z" fill="#f0f3fa"/><path d="m9 14.3a5.3 5.3 0 0 0 5-3.54h-3.24l-1.23-1.4 1.59-1.77.35.35h2.72a5.3 5.3 0 0 0 -10.38 0h2.54l2.65-2.64.47.52-2.84 2.84h-2.91l-.02.34h3.07l2.93-2.93.52.57-3.06 3.06h-3.4c0 .11.03.23.05.35h3.5l3.16-3.16.47.51-3 3.35h-3.93a5.3 5.3 0 0 0 4.99 3.55zm0 .7a6 6 0 1 0 0-12 6 6 0 0 0 0 12z" fill="#e90013" fill-rule="evenodd"/></svg>

<!-- by TradingView --><svg width="18" height="18" viewBox="0 0 18 18" xmlns="http://www.w3.org/2000/svg"><path fill="#F0F3FA" d="M0 0h18v18H0z"/><path fill-rule="evenodd" d="M9 14.3a5.3 5.3 0 0 0 5-3.54h-3.24l-1.23-1.4 1.59-1.77.35.35h2.72a5.3 5.3 0 0 0-10.38 0h2.54L9 5.3l.47.52-2.84 2.84H3.72L3.7 9h3.07L9.7 6.07l.52.57L7.16 9.7h-3.4c0 .11.03.23.05.35h3.5l3.16-3.16.47.51-3 3.35H4.01A5.3 5.3 0 0 0 9 14.3Zm0 .7A6 6 0 1 0 9 3a6 6 0 0 0 0 12Z" fill="#E90013"/></svg>
